packages/foundations/assets/icons/functional/images/audio & video/stop.svg

<svg xmlns="http://www.w3.org/2000/svg" width="32" height="32" fill="none"><path fill="#1A1C1F" fill-rule="evenodd" d="M10.364 8.079A3.04 3.04 0 0 0 8.15 10.07l-.123.357v11.146l.123.357a3.13 3.13 0 0 0 1.92 1.92l.357.123h11.146l.357-.123a3.13 3.13 0 0 0 1.92-1.92l.123-.357V10.427l-.123-.357a3.14 3.14 0 0 0-1.926-1.924l-.351-.119-5.44-.01c-4.413-.008-5.502.004-5.769.062m11.152 2.076c.122.071.271.222.338.34l.119.213v10.584l-.119.213a1.1 1.1 0 0 1-.36.354l-.241.141H10.747l-.232-.133a1.1 1.1 0 0 1-.36-.351l-.128-.219V10.693l.126-.207c.069-.114.219-.264.333-.333l.207-.126h10.604z"/></svg>

<svg width="32" height="32" viewBox="0 0 32 32" fill="none" xmlns="http://www.w3.org/2000/svg"><path d="M10.364 8.079 C 9.334 8.305,8.501 9.055,8.150 10.070 L 8.027 10.427 8.027 16.000 L 8.027 21.573 8.150 21.930 C 8.458 22.822,9.178 23.542,10.070 23.850 L 10.427 23.973 16.000 23.973 L 21.573 23.973 21.930 23.850 C 22.822 23.542,23.542 22.822,23.850 21.930 L 23.973 21.573 23.973 16.000 L 23.973 10.427 23.850 10.070 C 23.542 9.178,22.810 8.447,21.924 8.146 L 21.573 8.027 16.133 8.017 C 11.720 8.009,10.631 8.021,10.364 8.079 M21.516 10.155 C 21.638 10.226,21.787 10.377,21.854 10.495 L 21.973 10.708 21.973 16.000 L 21.973 21.292 21.854 21.505 C 21.783 21.630,21.636 21.775,21.494 21.859 L 21.253 22.000 16.000 22.000 L 10.747 22.000 10.515 21.867 C 10.380 21.790,10.229 21.643,10.155 21.516 L 10.027 21.297 10.027 15.995 L 10.027 10.693 10.153 10.486 C 10.222 10.372,10.372 10.222,10.486 10.153 L 10.693 10.027 15.995 10.027 L 21.297 10.027 21.516 10.155 " fill="#1A1C1F" stroke="none" fill-rule="evenodd"></path></svg>
